Numix-Light/16/status/indicator-keyboard-Pa-1.svg

<?xml version="1.0" encoding="UTF-8" standalone="no"?>
<svg
   xmlns:dc="http://purl.org/dc/elements/1.1/"
   xmlns:cc="http://creativecommons.org/ns#"
   xmlns:rdf="http://www.w3.org/1999/02/22-rdf-syntax-ns#"
   xmlns:svg="http://www.w3.org/2000/svg"
   xmlns="http://www.w3.org/2000/svg"
   xmlns:sodipodi="http://sodipodi.sourceforge.net/DTD/sodipodi-0.dtd"
   xmlns:inkscape="http://www.inkscape.org/namespaces/inkscape"
   viewBox="0 0 16 16"
   id="svg2"
   version="1.1"
   inkscape:version="0.91 r13725"
   sodipodi:docname="indicator-keyboard-Pa-1.svg">
  <metadata
     id="metadata14">
    <rdf:RDF>
      <cc:Work
         rdf:about="">
        <dc:format>image/svg+xml</dc:format>
        <dc:type
           rdf:resource="http://purl.org/dc/dcmitype/StillImage" />
      </cc:Work>
    </rdf:RDF>
  </metadata>
  <defs
     id="defs12" />
  <sodipodi:namedview
     pagecolor="#ffffff"
     bordercolor="#666666"
     borderopacity="1"
     objecttolerance="10"
     gridtolerance="10"
     guidetolerance="10"
     inkscape:pageopacity="0"
     inkscape:pageshadow="2"
     inkscape:window-width="640"
     inkscape:window-height="480"
     id="namedview10"
     showgrid="false"
     inkscape:zoom="14.75"
     inkscape:cx="8"
     inkscape:cy="8"
     inkscape:window-x="65"
     inkscape:window-y="24"
     inkscape:window-maximized="0"
     inkscape:current-layer="svg2" />
  <path
     style="fill:#353535;fill-opacity:1"
     d="M 1.5996094 0 C 0.71320937 2.9605947e-16 0 0.71320937 0 1.5996094 L 0 14.400391 C 2.9605947e-16 15.286791 0.71320937 16 1.5996094 16 L 14.400391 16 C 15.286791 16 16 15.286791 16 14.400391 L 16 1.5996094 C 16 0.71320937 15.286791 0 14.400391 0 L 1.5996094 0 z M 4.0253906 4.8046875 C 4.9073906 4.8046875 5.5640937 4.9725937 5.9960938 5.3085938 C 6.4280937 5.6445937 6.6445313 6.1222344 6.6445312 6.7402344 C 6.6445312 7.0942344 6.5810781 7.3964375 6.4550781 7.6484375 C 6.3290781 7.8944375 6.1500156 8.0959531 5.9160156 8.2519531 C 5.6820156 8.4019531 5.3927813 8.5139375 5.0507812 8.5859375 C 4.7147813 8.6519375 4.3342031 8.6835938 3.9082031 8.6835938 L 3.0625 8.6835938 L 3.0625 11.095703 L 2.4511719 11.095703 L 2.4511719 4.9765625 C 2.6671719 4.9165625 2.9190312 4.8736094 3.2070312 4.8496094 C 3.5010312 4.8196094 3.7733906 4.8046875 4.0253906 4.8046875 z M 4.0527344 5.3359375 C 3.8247344 5.3359375 3.6287969 5.3452812 3.4667969 5.3632812 C 3.3107969 5.3752813 3.1765 5.3864375 3.0625 5.3984375 L 3.0625 8.1523438 L 3.8359375 8.1523438 C 4.1659375 8.1523438 4.4645156 8.1356094 4.7285156 8.0996094 C 4.9985156 8.0576094 5.2261094 7.9848125 5.4121094 7.8828125 C 5.6041094 7.7748125 5.7515156 7.6274062 5.8535156 7.4414062 C 5.9555156 7.2554063 6.0058594 7.0184687 6.0058594 6.7304688 C 6.0058594 6.4544688 5.9479844 6.226875 5.8339844 6.046875 C 5.7259844 5.866875 5.5805313 5.7250469 5.3945312 5.6230469 C 5.2145313 5.5150469 5.0074375 5.4404375 4.7734375 5.3984375 C 4.5394375 5.3564375 4.2987344 5.3359375 4.0527344 5.3359375 z M 9.0839844 6.3359375 C 9.3899844 6.3359375 9.6474219 6.3807031 9.8574219 6.4707031 C 10.073422 6.5547031 10.246906 6.6740781 10.378906 6.8300781 C 10.510906 6.9800781 10.607969 7.1591406 10.667969 7.3691406 C 10.727969 7.5791406 10.757812 7.8086875 10.757812 8.0546875 L 10.757812 10.988281 C 10.697812 11.006281 10.610094 11.026781 10.496094 11.050781 C 10.382094 11.068781 10.249609 11.089281 10.099609 11.113281 C 9.9496095 11.137281 9.7817031 11.155969 9.5957031 11.167969 C 9.4157031 11.185969 9.2310625 11.195313 9.0390625 11.195312 C 8.7930625 11.195312 8.5635156 11.167281 8.3535156 11.113281 C 8.1495156 11.059281 7.9704531 10.975328 7.8144531 10.861328 C 7.6644531 10.741328 7.5450781 10.592109 7.4550781 10.412109 C 7.3710781 10.226109 7.328125 10.000328 7.328125 9.7363281 C 7.328125 9.4843281 7.3766562 9.2698437 7.4726562 9.0898438 C 7.5686563 8.9098438 7.7029531 8.7624375 7.8769531 8.6484375 C 8.0509531 8.5284375 8.2580469 8.4407187 8.4980469 8.3867188 C 8.7380469 8.3327188 8.99925 8.3066406 9.28125 8.3066406 C 9.36525 8.3066406 9.4529688 8.3122187 9.5429688 8.3242188 C 9.6389687 8.3302187 9.7285 8.341375 9.8125 8.359375 C 9.9025 8.371375 9.9771095 8.3862969 10.037109 8.4042969 C 10.103109 8.4162969 10.147875 8.4294063 10.171875 8.4414062 L 10.171875 8.1523438 C 10.171875 7.9903438 10.160719 7.8355469 10.136719 7.6855469 C 10.112719 7.5295469 10.058609 7.3914844 9.9746094 7.2714844 C 9.8966094 7.1454844 9.7828125 7.0466094 9.6328125 6.9746094 C 9.4888125 6.8966094 9.2966406 6.8574219 9.0566406 6.8574219 C 8.7146406 6.8574219 8.4590156 6.8816875 8.2910156 6.9296875 C 8.1230156 6.9776875 7.999875 7.016875 7.921875 7.046875 L 7.8417969 6.5332031 C 7.9437969 6.4852031 8.0985938 6.4404375 8.3085938 6.3984375 C 8.5245937 6.3564375 8.7839844 6.3359375 9.0839844 6.3359375 z M 9.2636719 8.8105469 C 9.1196719 8.8105469 8.9685 8.8217031 8.8125 8.8457031 C 8.6565 8.8637031 8.5128594 8.9084687 8.3808594 8.9804688 C 8.2488594 9.0464688 8.1406406 9.1397656 8.0566406 9.2597656 C 7.9726406 9.3797656 7.9316406 9.5383281 7.9316406 9.7363281 C 7.9316406 9.9103281 7.9577188 10.057734 8.0117188 10.177734 C 8.0717188 10.297734 8.1538594 10.394797 8.2558594 10.466797 C 8.3638594 10.538797 8.4888125 10.592906 8.6328125 10.628906 C 8.7828125 10.658906 8.9507188 10.673828 9.1367188 10.673828 C 9.3647187 10.673828 9.5644219 10.666297 9.7324219 10.654297 C 9.9064219 10.636297 10.051875 10.615797 10.171875 10.591797 L 10.171875 8.953125 C 10.105875 8.923125 10.001422 8.8932812 9.8574219 8.8632812 C 9.7134219 8.8272812 9.5156719 8.8105469 9.2636719 8.8105469 z M 13.28125 8.8417969 L 13.548828 8.8417969 L 13.548828 12.896484 L 13.169922 12.896484 L 13.169922 9.421875 C 13.127022 9.468675 13.0702 9.5157063 13 9.5664062 C 12.9337 9.6171062 12.857284 9.66805 12.771484 9.71875 C 12.685684 9.76555 12.595553 9.812575 12.501953 9.859375 C 12.408353 9.902275 12.314303 9.9375438 12.220703 9.9648438 L 12.109375 9.671875 C 12.343375 9.5899751 12.553028 9.4880812 12.736328 9.3632812 C 12.919628 9.2345812 13.10185 9.0601969 13.28125 8.8417969 z "
     id="path4" />
</svg>

<svg xmlns="http://www.w3.org/2000/svg" viewBox="0 0 16 16">
 <path d="m 1.6 0 c -0.886 0 -1.6 0.713 -1.6 1.6 l 0 12.801 c 0 0.886 0.713 1.6 1.6 1.6 l 12.801 0 c 0.886 0 1.6 -0.713 1.6 -1.6 l 0 -12.801 c 0 -0.886 -0.713 -1.6 -1.6 -1.6 l -12.801 0 z m 2.426 4.805 c 0.882 0 1.539 0.168 1.971 0.504 c 0.432 0.336 0.648 0.814 0.648 1.432 c 0 0.354 -0.063 0.656 -0.189 0.908 c -0.126 0.246 -0.305 0.448 -0.539 0.604 c -0.234 0.15 -0.523 0.262 -0.865 0.334 c -0.336 0.066 -0.717 0.098 -1.143 0.098 l -0.846 0 l 0 2.412 l -0.611 0 l 0 -6.119 c 0.216 -0.06 0.468 -0.103 0.756 -0.127 c 0.294 -0.03 0.566 -0.045 0.818 -0.045 z m 0.027 0.531 c -0.228 0 -0.424 0.009 -0.586 0.027 c -0.156 0.012 -0.29 0.023 -0.404 0.035 l 0 2.754 l 0.773 0 c 0.33 0 0.629 -0.017 0.893 -0.053 c 0.27 -0.042 0.498 -0.115 0.684 -0.217 c 0.192 -0.108 0.339 -0.255 0.441 -0.441 c 0.102 -0.186 0.152 -0.423 0.152 -0.711 c 0 -0.276 -0.058 -0.504 -0.172 -0.684 c -0.108 -0.18 -0.253 -0.322 -0.439 -0.424 c -0.18 -0.108 -0.387 -0.183 -0.621 -0.225 c -0.234 -0.042 -0.475 -0.063 -0.721 -0.063 z m 5.03 1 c 0.306 0 0.563 0.045 0.773 0.135 c 0.216 0.084 0.389 0.203 0.521 0.359 c 0.132 0.15 0.229 0.329 0.289 0.539 c 0.06 0.21 0.09 0.44 0.09 0.686 l 0 2.934 c -0.06 0.018 -0.148 0.038 -0.262 0.063 c -0.114 0.018 -0.246 0.038 -0.396 0.063 c -0.15 0.024 -0.318 0.043 -0.504 0.055 c -0.18 0.018 -0.365 0.027 -0.557 0.027 c -0.246 0 -0.476 -0.028 -0.686 -0.082 c -0.204 -0.054 -0.383 -0.138 -0.539 -0.252 c -0.15 -0.12 -0.269 -0.269 -0.359 -0.449 c -0.084 -0.186 -0.127 -0.412 -0.127 -0.676 c 0 -0.252 0.049 -0.466 0.145 -0.646 c 0.096 -0.18 0.23 -0.327 0.404 -0.441 c 0.174 -0.12 0.381 -0.208 0.621 -0.262 c 0.24 -0.054 0.501 -0.08 0.783 -0.08 c 0.084 0 0.172 0.006 0.262 0.018 c 0.096 0.006 0.186 0.017 0.27 0.035 c 0.09 0.012 0.165 0.027 0.225 0.045 c 0.066 0.012 0.111 0.025 0.135 0.037 l 0 -0.289 c 0 -0.162 -0.011 -0.317 -0.035 -0.467 c -0.024 -0.156 -0.078 -0.294 -0.162 -0.414 c -0.078 -0.126 -0.192 -0.225 -0.342 -0.297 c -0.144 -0.078 -0.336 -0.117 -0.576 -0.117 c -0.342 0 -0.598 0.024 -0.766 0.072 c -0.168 0.048 -0.291 0.087 -0.369 0.117 l -0.08 -0.514 c 0.102 -0.048 0.257 -0.093 0.467 -0.135 c 0.216 -0.042 0.475 -0.063 0.775 -0.063 z m 0.18 2.475 c -0.144 0 -0.295 0.011 -0.451 0.035 c -0.156 0.018 -0.3 0.063 -0.432 0.135 c -0.132 0.066 -0.24 0.159 -0.324 0.279 c -0.084 0.12 -0.125 0.279 -0.125 0.477 c 0 0.174 0.026 0.321 0.08 0.441 c 0.06 0.12 0.142 0.217 0.244 0.289 c 0.108 0.072 0.233 0.126 0.377 0.162 c 0.15 0.03 0.318 0.045 0.504 0.045 c 0.228 0 0.428 -0.008 0.596 -0.02 c 0.174 -0.018 0.319 -0.038 0.439 -0.063 l 0 -1.639 c -0.066 -0.03 -0.17 -0.06 -0.314 -0.09 c -0.144 -0.036 -0.342 -0.053 -0.594 -0.053 z m 4.02 0.031 l 0.268 0 l 0 4.055 l -0.379 0 l 0 -3.475 c -0.043 0.047 -0.1 0.094 -0.17 0.145 c -0.066 0.051 -0.143 0.102 -0.229 0.152 c -0.086 0.047 -0.176 0.094 -0.27 0.141 c -0.094 0.043 -0.188 0.078 -0.281 0.105 l -0.111 -0.293 c 0.234 -0.082 0.444 -0.184 0.627 -0.309 c 0.183 -0.129 0.366 -0.303 0.545 -0.521 z" style="fill:#353535;fill-opacity:1"/>
</svg>
